X: 31588
T: Palmer's Gate
R: reel
M: 4/4
K: Eminor
c|:BEEF GABG|A2 BA GEDE|~G3A BAGA|Bded BAAc|
B2 EF GABG|AcBA GEDE|GABd edBA|GAFG E2 Ac:|
|:Beed ed B/c/d|g2 fd edBA|~G3A BAGA|Bded BAAc|
Beed ed B/c/d|g2 fd edBA|GA B/c/d edBA|GAFG E3 A:|

